X:13
T:Tony Rowe's
E:10
M:6/8
R:jig
I:speed 350
K:D
E|~F3 AFE|EDB, A,B,D|FEF GFG|ABF AFE|\
~F3 AFE|EDB, A,B,D|FEF GFG|AFD D2:|*
e|f2 d dcd |edc Bcd|f2d dcd|ABF Ade|\
f2d dcd|edc Bcd|faf gec|dfe d2:|**
<end>
<start>
